X: 8
T: Roxburgh Castle  v.2
P: piffero secondo b0072
O: John Benoit
%R: reel, hornpipe
F: http://ancients.sudburymuster.org/mus/ssp/pdf/draft111F.pdf
Z: 2019 John Chambers <jc:trillian.mit.edu>
M: 2/4
L: 1/16
K: G
DC |\
B,2DG Bz2D | E2Gc Bz2=F | E2F2 GABG | F2G2 FEDC |\
B,2DG Bz2D | E2Gc Bz2A | B2AG FEDC | B,2C2 B,2 :|
|: A2 |\
B2GB cz2A | B2GB cz2=F | E2F2 GABG | F2G2 FEDC |\
B,2DG Bz2D | E2Gc Bz2A | B2AG FEDC | B,2C2 B,2 :|

% %sep 1 1 200
% %center - - - - - - - - - -
% Whatever we want at the bottom of each set belongs here.
